static/img/kroki/f7cedac8f4aee6399aa074292e94f6b9.svg

<?xml version="1.0" encoding="us-ascii" standalone="no"?><svg xmlns="http://www.w3.org/2000/svg" xmlns:xlink="http://www.w3.org/1999/xlink" contentStyleType="text/css" height="535px" preserveAspectRatio="none" style="width:389px;height:535px;" version="1.1" viewBox="0 0 389 535" width="389px" zoomAndPan="magnify"><defs/><g><!--class onelogin_region--><g id="elem_onelogin_region"><rect codeLine="23" fill="#3D176E" height="39.7891" id="onelogin_region" rx="2.5" ry="2.5" style="stroke:#000D19;stroke-width:0.5;" width="176" x="78" y="489.37"/><ellipse cx="93" cy="509.2645" fill="#ADD1B2" rx="11" ry="11" style="stroke:#181818;stroke-width:1.0;"/><path d="M95.9688,514.9052 Q95.3906,515.202 94.75,515.3427 Q94.1094,515.4989 93.4063,515.4989 Q90.9063,515.4989 89.5781,513.8583 Q88.2656,512.202 88.2656,509.077 Q88.2656,505.952 89.5781,504.2958 Q90.9063,502.6395 93.4063,502.6395 Q94.1094,502.6395 94.75,502.7958 Q95.4063,502.952 95.9688,503.2489 L95.9688,505.9677 Q95.3438,505.3895 94.75,505.1239 Q94.1563,504.8427 93.5313,504.8427 Q92.1875,504.8427 91.5,505.9208 Q90.8125,506.9833 90.8125,509.077 Q90.8125,511.1708 91.5,512.2489 Q92.1875,513.3114 93.5313,513.3114 Q94.1563,513.3114 94.75,513.0458 Q95.3438,512.7645 95.9688,512.1864 L95.9688,514.9052 Z " fill="#000000"/><text fill="#D9B8FF" font-family="Helvetica" font-size="17" lengthAdjust="spacing" textLength="134" x="112" y="515.1498">onelogin_region</text></g><!--class onelogin_resource--><g id="elem_onelogin_resource"><rect codeLine="26" fill="#3D176E" height="39.7891" id="onelogin_resource" rx="2.5" ry="2.5" style="stroke:#000D19;stroke-width:0.5;" width="194" x="7" y="328.58"/><ellipse cx="22" cy="348.4745" fill="#ADD1B2" rx="11" ry="11" style="stroke:#181818;stroke-width:1.0;"/><path d="M24.9688,354.1152 Q24.3906,354.412 23.75,354.5527 Q23.1094,354.7089 22.4063,354.7089 Q19.9063,354.7089 18.5781,353.0683 Q17.2656,351.412 17.2656,348.287 Q17.2656,345.162 18.5781,343.5058 Q19.9063,341.8495 22.4063,341.8495 Q23.1094,341.8495 23.75,342.0058 Q24.4063,342.162 24.9688,342.4589 L24.9688,345.1777 Q24.3438,344.5995 23.75,344.3339 Q23.1563,344.0527 22.5313,344.0527 Q21.1875,344.0527 20.5,345.1308 Q19.8125,346.1933 19.8125,348.287 Q19.8125,350.3808 20.5,351.4589 Q21.1875,352.5214 22.5313,352.5214 Q23.1563,352.5214 23.75,352.2558 Q24.3438,351.9745 24.9688,351.3964 L24.9688,354.1152 Z " fill="#000000"/><text fill="#D9B8FF" font-family="Helvetica" font-size="17" lengthAdjust="spacing" textLength="152" x="41" y="354.3598">onelogin_resource</text></g><!--class phantom_resource--><g id="elem_phantom_resource"><rect codeLine="29" fill="#3D176E" height="39.7891" id="phantom_resource" rx="2.5" ry="2.5" style="stroke:#000D19;stroke-width:0.5;" width="198" x="184" y="167.79"/><ellipse cx="199" cy="187.6845" fill="#ADD1B2" rx="11" ry="11" style="stroke:#181818;stroke-width:1.0;"/><path d="M201.9688,193.3252 Q201.3906,193.622 200.75,193.7627 Q200.1094,193.9189 199.4063,193.9189 Q196.9063,193.9189 195.5781,192.2783 Q194.2656,190.622 194.2656,187.497 Q194.2656,184.372 195.5781,182.7158 Q196.9063,181.0595 199.4063,181.0595 Q200.1094,181.0595 200.75,181.2158 Q201.4063,181.372 201.9688,181.6689 L201.9688,184.3877 Q201.3438,183.8095 200.75,183.5439 Q200.1563,183.2627 199.5313,183.2627 Q198.1875,183.2627 197.5,184.3408 Q196.8125,185.4033 196.8125,187.497 Q196.8125,189.5908 197.5,190.6689 Q198.1875,191.7314 199.5313,191.7314 Q200.1563,191.7314 200.75,191.4658 Q201.3438,191.1845 201.9688,190.6064 L201.9688,193.3252 Z " fill="#000000"/><text fill="#D9B8FF" font-family="Helvetica" font-size="17" lengthAdjust="spacing" textLength="156" x="218" y="193.5698">phantom_resource</text></g><!--class region--><g id="elem_region"><rect codeLine="32" fill="#3D176E" height="39.7891" id="region" rx="2.5" ry="2.5" style="stroke:#000D19;stroke-width:0.5;" width="95" x="235.5" y="328.58"/><ellipse cx="250.5" cy="348.4745" fill="#ADD1B2" rx="11" ry="11" style="stroke:#181818;stroke-width:1.0;"/><path d="M253.4688,354.1152 Q252.8906,354.412 252.25,354.5527 Q251.6094,354.7089 250.9063,354.7089 Q248.4063,354.7089 247.0781,353.0683 Q245.7656,351.412 245.7656,348.287 Q245.7656,345.162 247.0781,343.5058 Q248.4063,341.8495 250.9063,341.8495 Q251.6094,341.8495 252.25,342.0058 Q252.9063,342.162 253.4688,342.4589 L253.4688,345.1777 Q252.8438,344.5995 252.25,344.3339 Q251.6563,344.0527 251.0313,344.0527 Q249.6875,344.0527 249,345.1308 Q248.3125,346.1933 248.3125,348.287 Q248.3125,350.3808 249,351.4589 Q249.6875,352.5214 251.0313,352.5214 Q251.6563,352.5214 252.25,352.2558 Q252.8438,351.9745 253.4688,351.3964 L253.4688,354.1152 Z " fill="#000000"/><text fill="#D9B8FF" font-family="Helvetica" font-size="17" lengthAdjust="spacing" textLength="53" x="269.5" y="354.3598">region</text></g><!--class resource--><g id="elem_resource"><rect codeLine="35" fill="#3D176E" height="39.7891" id="resource" rx="2.5" ry="2.5" style="stroke:#000D19;stroke-width:0.5;" width="113" x="226.5" y="7"/><ellipse cx="241.5" cy="26.8945" fill="#ADD1B2" rx="11" ry="11" style="stroke:#181818;stroke-width:1.0;"/><path d="M244.4688,32.5352 Q243.8906,32.832 243.25,32.9727 Q242.6094,33.1289 241.9063,33.1289 Q239.4063,33.1289 238.0781,31.4883 Q236.7656,29.832 236.7656,26.707 Q236.7656,23.582 238.0781,21.9258 Q239.4063,20.2695 241.9063,20.2695 Q242.6094,20.2695 243.25,20.4258 Q243.9063,20.582 244.4688,20.8789 L244.4688,23.5977 Q243.8438,23.0195 243.25,22.7539 Q242.6563,22.4727 242.0313,22.4727 Q240.6875,22.4727 240,23.5508 Q239.3125,24.6133 239.3125,26.707 Q239.3125,28.8008 240,29.8789 Q240.6875,30.9414 242.0313,30.9414 Q242.6563,30.9414 243.25,30.6758 Q243.8438,30.3945 244.4688,29.8164 L244.4688,32.5352 Z " fill="#000000"/><text fill="#D9B8FF" font-family="Helvetica" font-size="17" lengthAdjust="spacing" textLength="71" x="260.5" y="32.7798">resource</text></g><!--reverse link onelogin_resource to onelogin_region--><g id="link_onelogin_resource_onelogin_region"><path codeLine="38" d="M118.0284,385.3966 C129.9484,415.9166 146.56,458.48 158.49,489.04 " fill="none" id="onelogin_resource-backto-onelogin_region" style="stroke:#FFAF37;stroke-width:2.0;"/><polygon fill="none" points="111.48,368.63,112.4396,387.5794,123.6173,383.2138,111.48,368.63" style="stroke:#FFAF37;stroke-width:2.0;"/></g><!--reverse link region to onelogin_region--><g id="link_region_onelogin_region"><path codeLine="39" d="M258.2119,383.1206 C235.7219,413.6406 202.68,458.48 180.16,489.04 " fill="none" id="region-backto-onelogin_region" style="stroke:#FFAF37;stroke-width:2.0;"/><polygon fill="none" points="268.89,368.63,253.3817,379.5613,263.0421,386.68,268.89,368.63" style="stroke:#FFAF37;stroke-width:2.0;"/></g><!--reverse link resource to phantom_resource--><g id="link_resource_phantom_resource"><path codeLine="40" d="M283,65.05 C283,95.57 283,136.9 283,167.47 " fill="none" id="resource-backto-phantom_resource" style="stroke:#FFAF37;stroke-width:2.0;"/><polygon fill="none" points="283,47.05,277,65.05,289,65.05,283,47.05" style="stroke:#FFAF37;stroke-width:2.0;"/></g><!--reverse link phantom_resource to region--><g id="link_phantom_resource_region"><path codeLine="41" d="M283,225.84 C283,256.36 283,297.69 283,328.25 " fill="none" id="phantom_resource-backto-region" style="stroke:#FFAF37;stroke-width:2.0;"/><polygon fill="none" points="283,207.84,277,225.84,289,225.84,283,207.84" style="stroke:#FFAF37;stroke-width:2.0;"/></g><!--SRC=[XP3BJiCm44Nt-GfBNKTAgA2DnAP4Gh2f46MFd7YSM4ayqTYbAez_Xv20NBkFhU_ndJDJAm4CkjxkMGTT0MGYqoZTS-8TMn7XBiSMYSsav7A-yCDxrFOYiEOTi0Tety2gall4IwtAHeCnxCg9xdZPL8HRBSPwIroRdmYqTQYyvSQih2LLR2quCY8hbbBwf5ywcujqSGC1XYI09YH94f5cFd9nrDcz_ucDUWUMkaTReuL0CnZnIvsr70X7CbZqBp_f-CI5KBfYryxRy-X46kZWVLDpWRk1bhmrxXXZWG3jleSys0gofP2Be_3ZAJWgXzCnrD1YfVGhGQLGiuye-WeZWrigmGtxcckBtT4ih3gamkBRppYEVPTewZaL7lprVQ90SEIctzy0]--></g></svg>

<svg xmlns="http://www.w3.org/2000/svg" width="389" height="535" viewBox="0 0 389 535"><rect width="176" height="39.789" x="78" y="489.37" fill="#3D176E" rx="2.5" ry="2.5" style="stroke:#000d19;stroke-width:.5"/><circle cx="93" cy="509.264" r="11" fill="#ADD1B2" style="stroke:#181818;stroke-width:1"/><path d="M95.969 514.905q-.578.297-1.219.438-.64.156-1.344.156-2.5 0-3.828-1.64-1.312-1.657-1.312-4.782t1.312-4.781q1.328-1.656 3.828-1.656.703 0 1.344.156.656.156 1.219.453v2.719q-.625-.579-1.219-.844-.594-.281-1.219-.281-1.344 0-2.031 1.078-.687 1.062-.687 3.156t.687 3.172q.688 1.062 2.031 1.062.625 0 1.219-.265.594-.282 1.219-.86z"/><text x="112" y="515.15" fill="#D9B8FF" font-family="Helvetica" font-size="17" textLength="134">onelogin_region</text><rect width="194" height="39.789" x="7" y="328.58" fill="#3D176E" rx="2.5" ry="2.5" style="stroke:#000d19;stroke-width:.5"/><circle cx="22" cy="348.474" r="11" fill="#ADD1B2" style="stroke:#181818;stroke-width:1"/><path d="M24.969 354.115q-.578.297-1.219.438-.64.156-1.344.156-2.5 0-3.828-1.64-1.312-1.657-1.312-4.782t1.312-4.781q1.328-1.656 3.828-1.656.703 0 1.344.156.656.156 1.219.453v2.719q-.625-.579-1.219-.844-.594-.281-1.219-.281-1.343 0-2.031 1.078-.687 1.062-.687 3.156t.687 3.172q.688 1.062 2.031 1.062.625 0 1.219-.265.594-.281 1.219-.86z"/><text x="41" y="354.36" fill="#D9B8FF" font-family="Helvetica" font-size="17" textLength="152">onelogin_resource</text><rect width="198" height="39.789" x="184" y="167.79" fill="#3D176E" rx="2.5" ry="2.5" style="stroke:#000d19;stroke-width:.5"/><circle cx="199" cy="187.685" r="11" fill="#ADD1B2" style="stroke:#181818;stroke-width:1"/><path d="M201.969 193.325q-.578.297-1.219.438-.64.156-1.344.156-2.5 0-3.828-1.64-1.312-1.657-1.312-4.782t1.312-4.781q1.328-1.656 3.828-1.656.703 0 1.344.156.656.156 1.219.453v2.719q-.625-.578-1.219-.844-.594-.281-1.219-.281-1.344 0-2.031 1.078-.687 1.062-.687 3.156t.687 3.172q.688 1.062 2.031 1.062.625 0 1.219-.265.594-.281 1.219-.86z"/><text x="218" y="193.57" fill="#D9B8FF" font-family="Helvetica" font-size="17" textLength="156">phantom_resource</text><rect width="95" height="39.789" x="235.5" y="328.58" fill="#3D176E" rx="2.5" ry="2.5" style="stroke:#000d19;stroke-width:.5"/><circle cx="250.5" cy="348.474" r="11" fill="#ADD1B2" style="stroke:#181818;stroke-width:1"/><path d="M253.469 354.115q-.578.297-1.219.438-.64.156-1.344.156-2.5 0-3.828-1.64-1.312-1.657-1.312-4.782t1.312-4.781q1.328-1.656 3.828-1.656.703 0 1.344.156.656.156 1.219.453v2.719q-.625-.579-1.219-.844-.594-.281-1.219-.281-1.344 0-2.031 1.078-.687 1.062-.687 3.156t.687 3.172q.688 1.062 2.031 1.062.625 0 1.219-.265.594-.281 1.219-.86z"/><text x="269.5" y="354.36" fill="#D9B8FF" font-family="Helvetica" font-size="17" textLength="53">region</text><rect width="113" height="39.789" x="226.5" y="7" fill="#3D176E" rx="2.5" ry="2.5" style="stroke:#000d19;stroke-width:.5"/><circle cx="241.5" cy="26.895" r="11" fill="#ADD1B2" style="stroke:#181818;stroke-width:1"/><path d="M244.469 32.535q-.578.297-1.219.438-.64.156-1.344.156-2.5 0-3.828-1.64-1.312-1.657-1.312-4.782t1.312-4.781q1.328-1.656 3.828-1.656.703 0 1.344.156.656.156 1.219.453v2.719q-.625-.578-1.219-.844-.594-.281-1.219-.281-1.344 0-2.031 1.078-.687 1.062-.687 3.156t.687 3.172q.688 1.062 2.031 1.062.625 0 1.219-.265.594-.281 1.219-.86z"/><text x="260.5" y="32.78" fill="#D9B8FF" font-family="Helvetica" font-size="17" textLength="71">resource</text><g fill="none"><path d="M118.028 385.397c11.92 30.52 28.532 73.083 40.462 103.643" style="stroke:#ffaf37;stroke-width:2"/><path d="m111.48 368.63.96 18.95 11.177-4.366z" style="stroke:#ffaf37;stroke-width:2"/></g><path fill="none" d="M258.212 383.12 180.16 489.04m88.73-120.41-15.508 10.931 9.66 7.119zM283 65.05v102.42m0-120.42-6 18h12zm0 178.79v102.41m0-120.41-6 18h12z" style="stroke:#ffaf37;stroke-width:2"/></svg>
